packages/ffe-icons/icons/open/300/md/nest_doorbell_visitor.svg

<svg xmlns="http://www.w3.org/2000/svg" height="24" viewBox="0 -960 960 960" width="24"><path d="M720-260.001q-29.154 0-49.576-20.423-20.423-20.423-20.423-49.577 0-29.153 20.423-49.576Q690.846-400 720-400t49.576 20.423q20.423 20.423 20.423 49.576 0 29.154-20.423 49.577-20.422 20.423-49.576 20.423Zm-149.999 170v-23q0-38.999 41.5-62.999Q653-200 720-200t108.499 24q41.5 24 41.5 62.999v23H570.001ZM480-562.308q32.048 0 54.87-22.822 22.822-22.822 22.822-54.87t-22.822-54.87q-22.822-22.822-54.87-22.822t-54.87 22.822q-22.822 22.822-22.822 54.87t22.822 54.87q22.822 22.822 54.87 22.822ZM480-480Zm-77.692 160q0 32.048 22.822 54.87 22.822 22.822 54.87 22.822t54.87-22.822q22.822-22.822 22.822-54.87t-22.822-54.87q-22.822-22.822-54.87-22.822t-54.87 22.822q-22.822 22.822-22.822 54.87ZM480-277.692q-17.769 0-30.039-12.269-12.269-12.27-12.269-30.039 0-17.769 12.269-30.039 12.27-12.269 30.039-12.269 17.769 0 30.039 12.269 12.269 12.27 12.269 30.039 0 17.769-12.269 30.039-12.27 12.269-30.039 12.269ZM290.001-680q0-80.384 54.807-135.192Q399.616-869.999 480-869.999q80.384 0 135.192 54.807Q669.999-760.384 669.999-680v170.001q0 12.749-8.628 21.374Q652.742-480 639.987-480q-12.756 0-21.371-8.625-8.615-8.625-8.615-21.374V-680q0-55.616-38.885-92.808-38.885-37.193-91.116-37.193t-91.116 37.193Q349.999-735.616 349.999-680v400q0 45.44 29.116 81.144 29.115 35.703 71.577 45.472 10.538 2.615 17.73 10.82 7.193 8.204 7.193 18.646 0 14.918-11.346 24.033-11.346 9.115-26.346 5.269-64.538-14.615-106.23-65.372Q290.001-210.744 290.001-280v-400Z"/></svg>

<svg xmlns="http://www.w3.org/2000/svg" height="24" viewBox="0 -960 960 960" width="24"><path d="M720-260q-29.15 0-49.58-20.42Q650-300.85 650-330t20.42-49.58Q690.85-400 720-400t49.58 20.42Q790-359.15 790-330t-20.42 49.58Q749.15-260 720-260ZM570-90v-23q0-39 41.5-63T720-200q67 0 108.5 24t41.5 63v23H570Zm-90-472.31q32.05 0 54.87-22.82T557.69-640q0-32.05-22.82-54.87T480-717.69q-32.05 0-54.87 22.82T402.31-640q0 32.05 22.82 54.87T480-562.31Zm0 82.31Zm-77.69 160q0 32.05 22.82 54.87T480-242.31q32.05 0 54.87-22.82T557.69-320q0-32.05-22.82-54.87T480-397.69q-32.05 0-54.87 22.82T402.31-320ZM480-277.69q-17.77 0-30.04-12.27T437.69-320q0-17.77 12.27-30.04T480-362.31q17.77 0 30.04 12.27T522.31-320q0 17.77-12.27 30.04T480-277.69ZM290-680q0-80.38 54.81-135.19T480-870q80.38 0 135.19 54.81T670-680v170q0 12.75-8.63 21.38-8.63 8.62-21.38 8.62-12.76 0-21.37-8.62Q610-497.25 610-510v-170q0-55.62-38.88-92.81Q532.23-810 480-810q-52.23 0-91.12 37.19Q350-735.62 350-680v400q0 45.44 29.11 81.14 29.12 35.71 71.58 45.48 10.54 2.61 17.73 10.82 7.19 8.2 7.19 18.64 0 14.92-11.34 24.03-11.35 9.12-26.35 5.27-64.53-14.61-106.23-65.37Q290-210.74 290-280v-400Z"/></svg>
